assets/2023/icons/typeScript.svg

<svg width="16" height="16" viewBox="0 0 16 16" fill="none" xmlns="http://www.w3.org/2000/svg">
<path d="M14 4C14 2.89543 13.1046 2 12 2H4C2.89543 2 2 2.89543 2 4V12C2 13.1046 2.89543 14 4 14H12C13.1046 14 14 13.1046 14 12V4Z" fill="#3574F0"/>
<path d="M3.13501 6H7.87171V7H6V12H5V7H3.13501V6Z" fill="white"/>
<path d="M10.6836 12.1026C10.2589 12.1026 9.88274 12.0257 9.55499 11.8718C9.22724 11.715 8.97074 11.4984 8.78549 11.222C8.60024 10.9427 8.50619 10.6235 8.50334 10.2644H9.51652C9.51652 10.4525 9.56639 10.6206 9.66614 10.7688C9.76589 10.917 9.90412 11.0324 10.0808 11.1151C10.2604 11.1949 10.4656 11.2348 10.6964 11.2348C10.9216 11.2348 11.1196 11.1977 11.2906 11.1236C11.4616 11.0495 11.5927 10.9455 11.6839 10.8116C11.778 10.6748 11.825 10.518 11.825 10.3413C11.825 10.119 11.758 9.92806 11.6241 9.76846C11.4901 9.60601 11.312 9.50626 11.0897 9.46921L10.0765 9.29821C9.78584 9.24691 9.53362 9.14431 9.31987 8.99041C9.10612 8.83651 8.94082 8.64414 8.82397 8.41329C8.70997 8.17959 8.65297 7.92451 8.65297 7.64806C8.65297 7.31746 8.73847 7.02106 8.90947 6.75886C9.08332 6.49381 9.32414 6.28719 9.63194 6.13899C9.93974 5.98794 10.2874 5.91241 10.675 5.91241C11.0712 5.91241 11.4232 5.98509 11.731 6.13044C12.0416 6.27579 12.2839 6.47814 12.4577 6.73749C12.6316 6.99684 12.7199 7.29324 12.7228 7.62669H11.7096C11.7096 7.46424 11.6668 7.31889 11.5813 7.19064C11.4958 7.05954 11.3761 6.95836 11.2222 6.88711C11.0683 6.81586 10.8902 6.78024 10.6879 6.78024C10.4855 6.78024 10.3074 6.81444 10.1535 6.88284C9.99959 6.95124 9.87989 7.04814 9.79439 7.17354C9.70889 7.29894 9.66614 7.44429 9.66614 7.60959C9.66614 7.80339 9.72884 7.97154 9.85424 8.11404C9.97964 8.25369 10.1435 8.34061 10.3459 8.37481L11.3419 8.53726C11.6355 8.58856 11.8963 8.69829 12.1243 8.86644C12.3551 9.03459 12.5332 9.24406 12.6586 9.49486C12.784 9.74566 12.8467 10.0121 12.8467 10.2943C12.8467 10.6363 12.7555 10.9455 12.5731 11.222C12.3907 11.4956 12.1357 11.7107 11.8079 11.8675C11.4802 12.0242 11.1054 12.1026 10.6836 12.1026Z" fill="white"/>
</svg>

<svg xmlns="http://www.w3.org/2000/svg" width="16" height="16" fill="none" viewBox="0 0 16 16"><path fill="#3574F0" d="M14 4a2 2 0 0 0-2-2H4a2 2 0 0 0-2 2v8a2 2 0 0 0 2 2h8a2 2 0 0 0 2-2z"/><path fill="#fff" d="M3.135 6h4.737v1H6v5H5V7H3.135zm7.549 6.103q-.637 0-1.129-.231a1.9 1.9 0 0 1-.77-.65 1.7 1.7 0 0 1-.282-.958h1.014q0 .283.15.505.149.222.414.346.27.12.615.12.339 0 .595-.111a.9.9 0 0 0 .393-.312.8.8 0 0 0 .141-.47.86.86 0 0 0-.735-.873l-1.014-.17a1.8 1.8 0 0 1-.756-.309 1.6 1.6 0 0 1-.496-.577 1.7 1.7 0 0 1-.171-.765q0-.495.256-.89a1.75 1.75 0 0 1 .723-.619 2.3 2.3 0 0 1 1.043-.227q.594 0 1.056.218.466.219.727.607.26.39.265.89H11.71a.77.77 0 0 0-.129-.436.84.84 0 0 0-.359-.304 1.3 1.3 0 0 0-.534-.107q-.303 0-.535.103a.83.83 0 0 0-.359.29.76.76 0 0 0-.128.437q0 .29.188.504.189.21.492.26l.996.163q.44.077.782.33.347.252.535.628.188.375.188.8 0 .511-.274.927a1.86 1.86 0 0 1-.765.646 2.6 2.6 0 0 1-1.124.235"/></svg>
